X: 18
T: The Holly Bush (in progress)
R: jig
M: 6/8
L: 1/8
K: Gmaj
"C" BAG "G" GDG | GDG "D" ABc | "G" BAG "Am" edc | "G" BdB "C" cBA |
"C" BAG "G" GDG | GDG "D" ABc | "G" BAG "C" edB | "D" def "G" g2 A :|
|: "G" gdd gdd | gdd "Bm" dcB | "A" Acc Acc | Acc "D" cBA |
"G" BAB "Am" cdc | "Em" BAG "C" Adc |"Em" BAG "C" edB | "D" def "G" g3 :|



